dist/img/header/logo-orange.svg

<svg width="181" height="105" viewBox="0 0 181 105" fill="none" xmlns="http://www.w3.org/2000/svg">
<g clip-path="url(#clip0_0_410)">
<path d="M36.8706 41.2255H32.8157V79.0201H36.8706V41.2255ZM30.3084 41.2255H26.2488V79.0201H30.3084V41.2255ZM30.3084 41.2255H26.2488V79.0201H30.3084V41.2255ZM23.7415 41.2255H19.6866V79.0201H23.7415V41.2255ZM36.8706 0.860352H19.6866V38.6555H36.8706V0.860352ZM17.1793 0.860352H0V79.0201H17.1793V0.860352ZM170.463 95.7213L165.218 87.6574H169.54L172.898 93.0026L176.234 87.6574H180.148L174.936 95.4367L180.708 104.196H176.357L172.593 98.2201L168.735 104.196H164.851L170.463 95.7213ZM160.81 96.0376V95.8163C160.81 92.4007 159.145 90.3133 156.364 90.3133C153.589 90.3133 151.89 92.369 151.89 95.7849V96.0376C151.89 99.4212 153.527 101.54 156.364 101.54C159.145 101.54 160.81 99.4212 160.81 96.0376ZM148.066 96.1008V95.8481C148.066 90.7247 151.613 87.3087 156.364 87.3087C161.087 87.3087 164.634 90.6929 164.634 95.7531V96.0063C164.634 101.16 161.087 104.513 156.335 104.513C151.585 104.513 148.066 101.129 148.066 96.1008ZM141.918 96.0376V95.7849C141.918 92.1158 140.069 90.3133 137.628 90.3133C135.04 90.3133 133.187 92.1158 133.187 95.7849V96.0376C133.187 99.7375 134.946 101.477 137.66 101.477C140.407 101.477 141.918 99.5794 141.918 96.0376ZM133.309 101.54V104.196H129.579V80.0048H133.309V90.3133C134.208 88.7327 136.212 87.3087 138.587 87.3087C142.628 87.3087 145.742 90.3765 145.742 95.7213V95.9744C145.742 101.287 142.75 104.513 138.587 104.513C136.024 104.513 134.175 103.216 133.309 101.54ZM122.175 98.409V96.7642H120.26C117.424 96.7642 115.603 97.4292 115.603 99.4525C115.603 100.845 116.342 101.762 118.195 101.762C120.476 101.762 122.175 100.528 122.175 98.409ZM111.9 99.6107C111.9 95.7531 115.542 94.3614 120.171 94.3614H122.175V93.5079C122.175 91.2937 121.432 90.1875 119.244 90.1875C117.301 90.1875 116.342 91.1355 116.159 92.7802H112.55C112.856 88.9217 115.852 87.3087 119.46 87.3087C123.069 87.3087 125.905 88.8267 125.905 93.3493V104.196H122.236V102.173C121.187 103.595 119.766 104.513 117.301 104.513C114.337 104.513 111.9 103.058 111.9 99.6107ZM85.0641 87.6574H88.7945V90.1875C89.5659 88.6377 91.3252 87.3087 93.7009 87.3087C95.7989 87.3087 97.4641 88.2269 98.2684 90.2824C99.501 88.2269 101.721 87.3087 103.725 87.3087C106.689 87.3087 109.092 89.1753 109.092 93.7288V104.196H105.362V93.982C105.362 91.5468 104.346 90.5038 102.493 90.5038C100.644 90.5038 98.9459 91.7681 98.9459 94.2983V104.196H95.2109V93.982C95.2109 91.5468 94.1619 90.5038 92.3414 90.5038C90.4926 90.5038 88.7945 91.7681 88.7945 94.2983V104.196H85.0641V87.6574ZM73.4309 87.6574H77.166V90.757C78.182 88.6695 79.6967 87.436 82.411 87.4042V90.9783C79.1417 91.0092 77.166 92.0844 77.166 95.5948V104.196H73.4309V87.6574ZM66.6475 96.0376V95.8163C66.6475 92.4007 64.9823 90.3133 62.2022 90.3133C59.4269 90.3133 57.7333 92.369 57.7333 95.7849V96.0376C57.7333 99.4212 59.3657 101.54 62.2022 101.54C64.9823 101.54 66.6475 99.4212 66.6475 96.0376ZM53.9042 96.1008V95.8481C53.9042 90.7247 57.4511 87.3087 62.2022 87.3087C66.9251 87.3087 70.472 90.6929 70.472 95.7531V96.0063C70.472 101.16 66.9251 104.513 62.174 104.513C57.4228 104.513 53.9042 101.129 53.9042 96.1008ZM39.3685 81.5859H53.0339V84.9378H43.4705V91.6741H50.997V94.9309H43.4705V104.196H39.3685V81.5859Z" fill="#FF6B30"/>
</g>
<defs>
<clipPath id="clip0_0_410">
<rect width="181" height="105" fill="white"/>
</clipPath>
</defs>
</svg>

<svg width="181" height="105" fill="none" xmlns="http://www.w3.org/2000/svg"><g clip-path="url(#a)"><path d="M36.87 41.225h-4.054V79.02h4.055V41.226Zm-6.562 0h-4.06V79.02h4.06V41.226Zm0 0h-4.06V79.02h4.06V41.226Zm-6.567 0h-4.054V79.02h4.054V41.226ZM36.871.86H19.687v37.796H36.87V.86Zm-19.692 0H0v78.16h17.18V.86Zm153.284 94.861-5.245-8.064h4.322l3.358 5.346 3.336-5.346h3.914l-5.212 7.78 5.772 8.759h-4.351l-3.764-5.976-3.858 5.976h-3.884l5.612-8.475Zm-9.653.317v-.222c0-3.415-1.665-5.503-4.446-5.503-2.775 0-4.474 2.056-4.474 5.472v.253c0 3.383 1.637 5.502 4.474 5.502 2.781 0 4.446-2.119 4.446-5.502Zm-12.744.063v-.253c0-5.123 3.547-8.54 8.298-8.54 4.723 0 8.27 3.385 8.27 8.445v.253c0 5.154-3.547 8.507-8.299 8.507-4.75 0-8.269-3.384-8.269-8.412Zm-6.148-.063v-.253c0-3.67-1.849-5.472-4.29-5.472-2.588 0-4.441 1.803-4.441 5.472v.253c0 3.7 1.759 5.439 4.473 5.439 2.747 0 4.258-1.898 4.258-5.44Zm-8.609 5.502v2.656h-3.73V80.005h3.73v10.308c.899-1.58 2.903-3.004 5.278-3.004 4.041 0 7.155 3.067 7.155 8.412v.253c0 5.313-2.992 8.539-7.155 8.539-2.563 0-4.412-1.297-5.278-2.973Zm-11.134-3.131v-1.645h-1.915c-2.836 0-4.657.665-4.657 2.689 0 1.392.739 2.309 2.592 2.309 2.281 0 3.98-1.234 3.98-3.353ZM111.9 99.611c0-3.858 3.642-5.25 8.271-5.25h2.004v-.853c0-2.214-.743-3.32-2.931-3.32-1.943 0-2.902.947-3.085 2.592h-3.609c.306-3.858 3.302-5.471 6.91-5.471 3.609 0 6.445 1.518 6.445 6.04v10.847h-3.669v-2.023c-1.049 1.422-2.47 2.34-4.935 2.34-2.964 0-5.401-1.455-5.401-4.902ZM85.064 87.657h3.73v2.53c.772-1.55 2.531-2.878 4.907-2.878 2.098 0 3.763.918 4.567 2.973 1.233-2.055 3.453-2.973 5.457-2.973 2.964 0 5.367 1.866 5.367 6.42v10.467h-3.73V93.982c0-2.435-1.016-3.478-2.869-3.478-1.849 0-3.547 1.264-3.547 3.794v9.898H95.21V93.982c0-2.435-1.05-3.478-2.87-3.478-1.848 0-3.546 1.264-3.546 3.794v9.898h-3.73V87.657Zm-11.633 0h3.735v3.1c1.016-2.088 2.53-3.321 5.245-3.353v3.574c-3.27.031-5.245 1.106-5.245 4.617v8.601h-3.735V87.657Zm-6.784 8.38v-.22c0-3.416-1.665-5.504-4.445-5.504-2.775 0-4.469 2.056-4.469 5.472v.253c0 3.383 1.633 5.502 4.47 5.502 2.78 0 4.444-2.119 4.444-5.502Zm-12.743.064v-.253c0-5.123 3.547-8.54 8.298-8.54 4.723 0 8.27 3.385 8.27 8.445v.253c0 5.154-3.547 8.507-8.298 8.507-4.751 0-8.27-3.384-8.27-8.412ZM39.368 81.586h13.666v3.352H43.47v6.736h7.526v3.257H43.47v9.265h-4.102v-22.61Z" fill="#FF6B30"/></g><defs><clipPath id="a"><path fill="#fff" d="M0 0h181v105H0z"/></clipPath></defs></svg>
